!!!COM: Music21
!!!OTL: polka_Green-Flag--The
!!!OMV: polka_Green-Flag--The
**kern
*clefG2
*k[f#c#]
*D:
*M2/4
=1
16aLL
32aL
32bJ
16dd
16ddJJ
=
16eeLL
32eeL
32ff#J
16ee
16ddJJ
4ryy
=
16bLL
16gg
32ff#L
32gg
32aa
32ff#JJJ
4ryy
=
16ddLL
32ddL
32ee
32ff#
32ee
32dd
32bJJJ
4ryy
=
16aLL
32aL
32bJ
16dd
16ddJJ
4ryy
=
16eeLL
32eeL
32ff#J
16ee
16ddJJ
4ryy
!!linebreak:original
=
16bLL
16gg
32ff#L
32gg
32aa
32ff#JJJ
4ryy
=
16ddLL
32ddL
32eeJJ
8ddJ
4ryy
=||
*M2/4
16aLL
32aL
32bJ
16dd
16ddJJ
=
16eeLL
32eeL
32ff#J
16ee
16ddJJ
4ryy
=
16bLL
16gg
32ff#L
32gg
32aa
32ff#JJJ
4ryy
=
16ddLL
32ddL
32ee
32ff#
32ee
32dd
32bJJJ
4ryy
!!linebreak:original
=
16aLL
32aL
32bJ
16dd
16ddJJ
4ryy
=
16eeLL
32eeL
32ff#J
16ee
16ddJJ
4ryy
=
16bLL
16gg
32ff#L
32gg
32aa
32ff#JJJ
4ryy
=
16ddLL
32ddL
32eeJJ
8ddJ
4ryy
=||
16.ff#LL
32ggK
16aa
16ff#JJ
4ryy
=
16ggLL
16ff#
16ee
16ddJJ
4ryy
=
16.ff#LL
32ggK
16aa
16ff#JJ
4ryy
!!linebreak:original
=
16ggLL
16ff#J
8eeJ
4ryy
=
16.ff#LL
32ggK
16aa
16ff#JJ
4ryy
=
16ggLL
16ff#
16ee
16ddJJ
4ryy
=
16bLL
16gg
32ff#L
32gg
32aa
32ff#JJJ
4ryy
=
16ddLL
32ddL
32eeJJ
8ddJ
4ryy
=||
16.ff#LL
32ggK
16aa
16ff#JJ
4ryy
=
16ggLL
16ff#
16ee
16ddJJ
4ryy
!!linebreak:original
=
16.ff#LL
32ggK
16aa
16ff#JJ
4ryy
=
16ggLL
16ff#J
8eeJ
4ryy
=
16.ff#LL
32ggK
16aa
16ff#JJ
4ryy
=
16ggLL
16ff#
16ee
16ddJJ
4ryy
=
16bLL
16gg
32ff#L
32gg
32aa
32ff#JJJ
4ryy
=
16ddLL
32ddL
32eeJJ
8ddJ
4ryy
=||
*-
